Adwaita++-Light/panel/24/livewallpaper-indicator.svg

<svg height="24" width="24" xmlns="http://www.w3.org/2000/svg">
  <path d="m4.8007813 5c-.4432001 0-.8007813.362375-.8007813.8125v11.375c0 .450125.3575812.8125.8007813.8125h2.1992187v1.1875c0 .450125.3723177.8125.8339844.8125h8.3320316c.461666 0 .833984-.362375.833984-.8125v-1.1875h2.199219c.4432 0 .800781-.362375.800781-.8125v-11.375c0-.450125-.357581-.8125-.800781-.8125zm.1992187 1h14v11h-14zm6 1a1 1 0 0 0 -1 1 1 1 0 0 0 1 1 1 1 0 0 0 1-1 1 1 0 0 0 -1-1zm5 0a2 2 0 0 0 -2 2 2 2 0 0 0 2 2 2 2 0 0 0 2-2 2 2 0 0 0 -2-2zm-8.5 3a1.5 1.5 0 0 0 -1.5 1.5 1.5 1.5 0 0 0 1.5 1.5 1.5 1.5 0 0 0 1.5-1.5 1.5 1.5 0 0 0 -1.5-1.5zm8.964844 2.400391a.5.5 0 0 0 -.464844.5.5.5 0 0 0 .5.5.5.5 0 0 0 .5-.5.5.5 0 0 0 -.5-.5.5.5 0 0 0 -.03516 0zm-3.464844.599609a1 1 0 0 0 -1 1 1 1 0 0 0 1 1 1 1 0 0 0 1-1 1 1 0 0 0 -1-1z" fill="#444"/>
</svg>

<svg xmlns="http://www.w3.org/2000/svg" width="24" height="24" version="1">
 <defs>
  <style id="current-color-scheme" type="text/css">
   .ColorScheme-Text { color:#444444; } .ColorScheme-Highlight { color:#4285f4; }
  </style>
 </defs>
 <path style="fill:currentColor" class="ColorScheme-Text" d="M 4.8007813,5 C 4.3575812,5 4,5.362375 4,5.8125 l 0,11.375 C 4,17.637625 4.3575812,18 4.8007813,18 L 7,18 7,19.1875 C 7,19.637625 7.3723177,20 7.8339844,20 l 8.3320316,0 C 16.627682,20 17,19.637625 17,19.1875 L 17,18 19.199219,18 C 19.642419,18 20,17.637625 20,17.1875 L 20,5.8125 C 20,5.362375 19.642419,5 19.199219,5 L 4.8007813,5 Z M 5,6 19,6 19,17 5,17 5,6 Z m 6,1 a 1,1 0 0 0 -1,1 1,1 0 0 0 1,1 1,1 0 0 0 1,-1 1,1 0 0 0 -1,-1 z m 5,0 a 2,2 0 0 0 -2,2 2,2 0 0 0 2,2 2,2 0 0 0 2,-2 2,2 0 0 0 -2,-2 z M 7.5,10 A 1.5,1.5 0 0 0 6,11.5 1.5,1.5 0 0 0 7.5,13 1.5,1.5 0 0 0 9,11.5 1.5,1.5 0 0 0 7.5,10 Z m 8.964844,2.400391 a 0.5,0.5 0 0 0 -0.464844,0.5 0.5,0.5 0 0 0 0.5,0.5 0.5,0.5 0 0 0 0.5,-0.5 0.5,0.5 0 0 0 -0.5,-0.5 0.5,0.5 0 0 0 -0.03516,0 z M 13,13 a 1,1 0 0 0 -1,1 1,1 0 0 0 1,1 1,1 0 0 0 1,-1 1,1 0 0 0 -1,-1 z"/>
</svg>
